mockup/templates/main/build/images/GROHE TurboStat.svg

<svg xmlns="http://www.w3.org/2000/svg" width="48" height="48" viewBox="0 0 48 48">
  <g fill="none" fill-rule="evenodd">
    <rect width="48" height="48" fill="#132D52" rx="8"/>
    <path fill="#FEFEFE" d="M36.5304828,17.249931 L37.713931,15.6808276 C38.1508966,15.1015172 38.0350345,14.2772414 37.4557241,13.8386207 L35.3884138,12.2827586 C34.8091034,11.8457931 33.9864828,11.9616552 33.5495172,12.5393103 L32.6722759,13.6333793 C30.9442759,12.5227586 29.0441379,11.7398621 26.9685517,11.374069 L26.9652414,8.36165517 L28.3158621,8.36 C29.0441379,8.36 29.6317241,7.77075862 29.6317241,7.0457931 L29.6317241,6.3142069 C29.6317241,5.58758621 29.0441379,5 28.3158621,5 L20.3991724,5 C19.6725517,5 19.0849655,5.58758621 19.0849655,6.3142069 L19.0849655,7.0457931 C19.0849655,7.77075862 19.6725517,8.36 20.3991724,8.36 L21.518069,8.36165517 L21.518069,11.3194483 C19.4557241,11.7034483 17.6002759,12.4631724 15.9401379,13.592 L15.1158621,12.5393103 C14.6788966,11.9616552 13.8546207,11.8457931 13.2753103,12.2827586 L11.208,13.8386207 C10.6286897,14.2772414 10.5128276,15.1015172 10.9497931,15.6808276 L12.0802759,17.1787586 C10.1155862,19.7674483 9,22.9635862 9,26.4427586 C9,34.8924138 15.8507586,41.7431724 24.3004138,41.7431724 C32.750069,41.7431724 39.5991724,34.8924138 39.5991724,26.4427586 C39.5991724,22.9702069 38.4736552,19.8171034 36.5304828,17.249931"/>
    <path stroke="#FEFEFE" stroke-width=".288" d="M36.5304828,17.249931 L37.713931,15.6808276 C38.1508966,15.1015172 38.0350345,14.2772414 37.4557241,13.8386207 L35.3884138,12.2827586 C34.8091034,11.8457931 33.9864828,11.9616552 33.5495172,12.5393103 L32.6722759,13.6333793 C30.9442759,12.5227586 29.0441379,11.7398621 26.9685517,11.374069 L26.9652414,8.36165517 L28.3158621,8.36 C29.0441379,8.36 29.6317241,7.77075862 29.6317241,7.0457931 L29.6317241,6.3142069 C29.6317241,5.58758621 29.0441379,5 28.3158621,5 L20.3991724,5 C19.6725517,5 19.0849655,5.58758621 19.0849655,6.3142069 L19.0849655,7.0457931 C19.0849655,7.77075862 19.6725517,8.36 20.3991724,8.36 L21.518069,8.36165517 L21.518069,11.3194483 C19.4557241,11.7034483 17.6002759,12.4631724 15.9401379,13.592 L15.1158621,12.5393103 C14.6788966,11.9616552 13.8546207,11.8457931 13.2753103,12.2827586 L11.208,13.8386207 C10.6286897,14.2772414 10.5128276,15.1015172 10.9497931,15.6808276 L12.0802759,17.1787586 C10.1155862,19.7674483 9,22.9635862 9,26.4427586 C9,34.8924138 15.8507586,41.7431724 24.3004138,41.7431724 C32.750069,41.7431724 39.5991724,34.8924138 39.5991724,26.4427586 C39.5991724,22.9702069 38.4736552,19.8171034 36.5304828,17.249931 Z"/>
    <path fill="#132D52" d="M20.7796966,28.5807448 C21.3126621,28.5807448 21.7512828,28.7528828 21.9780414,29.0425379 C22.2114207,29.3421241 22.3405241,29.8668138 22.3405241,30.4825379 C22.3405241,31.0006069 22.2362483,31.5435034 22.0823172,31.8331586 C21.8472828,32.288331 21.4599724,32.4902621 20.8194207,32.4902621 C20.2450759,32.4902621 19.8561103,32.3280552 19.622731,31.980469 C19.410869,31.6726069 19.2817655,31.0916414 19.2817655,30.4775724 C19.2817655,30.0372966 19.362869,29.5788138 19.5002483,29.292469 C19.718731,28.8240552 20.1556966,28.5807448 20.7796966,28.5807448 M20.8111448,27.7945379 C20.0017655,27.7945379 19.3380414,28.0064 18.9259034,28.3937103 C18.4641103,28.8240552 18.2059034,29.6019862 18.2059034,30.5470897 C18.2059034,32.4190897 19.0632828,33.2748138 20.9170759,33.2748138 C21.7430069,33.2748138 22.3090759,33.0728828 22.7294897,32.6375724 C23.174731,32.1741241 23.4180414,31.4292966 23.4180414,30.5073655 C23.4180414,29.6979862 23.222731,29.0011586 22.8751448,28.572469 C22.4712828,28.064331 21.7579034,27.7945379 20.8111448,27.7945379"/>
    <polygon fill="#132D52" points="24.121 33.236 25.012 33.236 25.012 32.281 24.121 32.281"/>
    <path fill="#132D52" d="M26.0231172,33.2342621 L28.2642207,33.2342621 C29.1067034,33.2342621 29.3980138,33.1862621 29.7373241,32.9859862 C30.1593931,32.724469 30.3944276,32.2990897 30.3944276,31.7694345 C30.3944276,31.1388138 30.1113931,30.7101241 29.543669,30.4817103 C30.1444966,30.200331 30.3944276,29.8428138 30.3944276,29.2916414 C30.3944276,28.7421241 30.119669,28.2505379 29.6810483,28.0254345 C29.4145655,27.8864 29.0901517,27.8367448 28.4512552,27.8367448 L26.0231172,27.8367448 L26.0231172,28.6477793 L28.3122207,28.6477793 C28.6614621,28.6477793 28.8567724,28.6692966 28.9924966,28.7421241 C29.2109793,28.8497103 29.3334621,29.0731586 29.3334621,29.3578483 C29.3334621,29.5912276 29.2440828,29.7948138 29.0818759,29.9239172 C28.9279448,30.0464 28.7508414,30.0795034 28.2724966,30.0795034 L26.5494621,30.0795034 L26.5494621,30.8872276 L28.2079448,30.8872276 C28.5820138,30.8872276 28.8319448,30.9286069 28.9858759,31.0179862 C29.1960828,31.1388138 29.3169103,31.380469 29.3169103,31.6833655 C29.3169103,31.9233655 29.2374621,32.1087448 29.0818759,32.2378483 C28.9279448,32.3768828 28.7028414,32.4281931 28.2724966,32.4281931 L26.0231172,32.4281931 L26.0231172,33.2342621 Z"/>
    <polygon fill="#132D52" points="24.031 15.688 24.259 15.458 24.605 15.458 24.837 15.688 24.837 23.362 24.605 23.59 24.259 23.59 24.031 23.362"/>
    <polygon fill="#132D52" points="32.054 18.404 32.378 18.404 32.623 18.646 32.623 18.973 27.198 24.399 26.872 24.399 26.628 24.154 26.628 23.828"/>
  </g>
</svg>

<svg xmlns="http://www.w3.org/2000/svg" width="48" height="48"><g fill="none" fill-rule="evenodd"><rect width="48" height="48" fill="#132D52" rx="8"/><path fill="#FEFEFE" d="M36.53 17.25l1.184-1.57a1.317 1.317 0 0 0-.258-1.841l-2.068-1.556a1.314 1.314 0 0 0-1.838.256l-.878 1.094c-1.728-1.11-3.628-1.893-5.703-2.259l-.004-3.012 1.35-.002c.73 0 1.317-.59 1.317-1.314v-.732c0-.726-.588-1.314-1.316-1.314h-7.917c-.726 0-1.314.588-1.314 1.314v.732c0 .725.588 1.314 1.314 1.314l1.12.002v2.957c-2.063.384-3.919 1.144-5.579 2.273l-.824-1.053a1.316 1.316 0 0 0-1.84-.256l-2.068 1.556a1.317 1.317 0 0 0-.258 1.842l1.13 1.498C10.116 19.767 9 22.964 9 26.443c0 8.45 6.85 15.3 15.3 15.3 8.45 0 15.3-6.85 15.3-15.3 0-3.473-1.126-6.626-3.07-9.193"/><path stroke="#FEFEFE" stroke-width=".288" d="M36.53 17.25l1.184-1.57a1.317 1.317 0 0 0-.258-1.841l-2.068-1.556a1.314 1.314 0 0 0-1.838.256l-.878 1.094c-1.728-1.11-3.628-1.893-5.703-2.259l-.004-3.012 1.35-.002c.73 0 1.317-.59 1.317-1.314v-.732c0-.726-.588-1.314-1.316-1.314h-7.917c-.726 0-1.314.588-1.314 1.314v.732c0 .725.588 1.314 1.314 1.314l1.12.002v2.957c-2.063.384-3.919 1.144-5.579 2.273l-.824-1.053a1.316 1.316 0 0 0-1.84-.256l-2.068 1.556a1.317 1.317 0 0 0-.258 1.842l1.13 1.498C10.116 19.767 9 22.964 9 26.443c0 8.45 6.85 15.3 15.3 15.3 8.45 0 15.3-6.85 15.3-15.3 0-3.473-1.126-6.626-3.07-9.193z"/><path fill="#132D52" d="M20.78 28.58c.533 0 .971.173 1.198.463.233.3.363.824.363 1.44 0 .518-.105 1.06-.259 1.35-.235.455-.622.657-1.263.657-.574 0-.963-.162-1.196-.51-.212-.307-.341-.888-.341-1.502 0-.44.08-.9.218-1.186.219-.468.656-.711 1.28-.711m.031-.786c-.81 0-1.473.211-1.885.599-.462.43-.72 1.208-.72 2.153 0 1.872.857 2.728 2.711 2.728.826 0 1.392-.202 1.812-.637.446-.464.689-1.209.689-2.13 0-.81-.195-1.507-.543-1.936-.404-.508-1.117-.777-2.064-.777m3.31 5.441h.891v-.955h-.891zm1.902-.002h2.241c.843 0 1.134-.048 1.473-.248.422-.262.657-.687.657-1.217 0-.63-.283-1.059-.85-1.287.6-.282.85-.64.85-1.19 0-.55-.274-1.041-.713-1.267-.266-.139-.59-.188-1.23-.188h-2.428v.81h2.29c.348 0 .544.022.68.095.218.108.34.331.34.616a.707.707 0 0 1-.251.566c-.154.122-.331.156-.81.156H26.55v.807h1.659c.374 0 .624.042.778.131.21.12.33.362.33.665 0 .24-.079.426-.234.555-.154.139-.38.19-.81.19h-2.249v.806zm-1.992-17.546l.228-.23h.346l.232.23v7.674l-.232.228h-.346l-.228-.228zm8.023 2.716h.324l.245.242v.327l-5.425 5.426h-.326l-.244-.245v-.326z"/></g></svg>
